X:1
T:The Bonnet of Blue
M:3/4
L:1/4
K:G
 D| G B A| G B, C| D G F| G2G/2-G/2|A/2-A/2 A A| A D D| A A A| D2D/2-D/2|\
 B B G| c cA/2-A/2| B B B/2G/2| A2D/2-D/2| GB/2-B/2A/2-A/2| G B, C|\
 D G F| G2||
